svg/UnitedNationsOCHA-Humanitarian/food_NFI_bottled_water_icon.svg

<svg xmlns="http://www.w3.org/2000/svg" viewBox="0 0 32 32" enable-background="new 0 0 32 32"><path fill="#407cca" d="m10.984 12.564h10.03c.0001.067.021.122.021.188v1.35h-10.08v-1.35c0-.063.023-.124.023-.188m-.023 4.678h10.08v-1.538h-10.08v1.538m7.156-9.498v-1.808h.394c.359 0 .648-.325.648-.724v-.488c0-.399-.289-.724-.648-.724h-5.02c-.359 0-.648.325-.648.724v.489c0 .398.289.724.648.724h.427v1.808c-.896.449-1.614 1.128-2.148 2.039-.222.378-.372.777-.5 1.181h9.531c-.389-1.434-1.272-2.515-2.681-3.221m-7.156 18.337c0 0-.164 1.919 1.604 1.919h6.46c2.22 0 2.01-2.183 2.01-2.183v-6.972h-10.08v7.236"/></svg>

<?xml version="1.0" encoding="utf-8"?>
<!-- Generator: Adobe Illustrator 16.0.3, SVG Export Plug-In . SVG Version: 6.00 Build 0)  -->
<!DOCTYPE svg PUBLIC "-//W3C//DTD SVG 1.1//EN" "http://www.w3.org/Graphics/SVG/1.1/DTD/svg11.dtd">
<svg version="1.1" id="Layer_1" xmlns="http://www.w3.org/2000/svg" xmlns:xlink="http://www.w3.org/1999/xlink" x="0px" y="0px"
	 width="32px" height="32px" viewBox="0 0 32 32" enable-background="new 0 0 32 32" xml:space="preserve">
<path fill="#407CCA" d="M10.984,12.564h10.033c0.001,0.067,0.021,0.122,0.021,0.188v1.35H10.961v-1.35
	C10.961,12.689,10.984,12.628,10.984,12.564z M10.961,17.242h10.078v-1.538H10.961V17.242z M18.117,7.744V5.936h0.394
	c0.359,0,0.648-0.325,0.648-0.724V4.724C19.159,4.325,18.87,4,18.511,4h-5.023c-0.359,0-0.648,0.325-0.648,0.724v0.489
	c0,0.398,0.289,0.724,0.648,0.724h0.427v1.808c-0.896,0.449-1.614,1.128-2.148,2.039c-0.222,0.378-0.372,0.777-0.5,1.181h9.531
	C20.409,9.531,19.526,8.45,18.117,7.744z M10.961,26.081c0,0-0.164,1.919,1.604,1.919h6.46c2.22,0,2.014-2.183,2.014-2.183v-6.972
	H10.961V26.081z"/>
</svg>
